icons/modus-outlined/alarm-off.svg

<svg xmlns="http://www.w3.org/2000/svg" width="24" height="24" fill="currentColor" viewBox="0 0 24 24">
  <path d="M11.935 6.75601C15.245 6.75601 17.935 9.44601 17.935 12.756C17.935 13.296 17.845 13.806 17.715 14.296L19.295 15.876C19.705 14.916 19.935 13.866 19.935 12.756C19.935 8.33601 16.355 4.75601 11.935 4.75601C10.825 4.75601 9.775 4.98601 8.815 5.39601L10.395 6.97601C10.885 6.84601 11.405 6.75601 11.935 6.75601ZM4.855 4.26601V4.25601L4.655 4.05601C4.46802 3.86904 4.21443 3.76399 3.95 3.76399C3.68557 3.76399 3.43198 3.86904 3.245 4.05601C3.05802 4.24299 2.95298 4.49659 2.95298 4.76101C2.95298 5.02544 3.05802 5.27904 3.245 5.46601L3.505 5.72601L2.845 6.38601C2.75242 6.47859 2.67898 6.58851 2.62887 6.70947C2.57877 6.83043 2.55298 6.96008 2.55298 7.09101C2.55298 7.22194 2.57877 7.35159 2.62887 7.47256C2.67898 7.59352 2.75242 7.70343 2.845 7.79601C2.93758 7.88859 3.04749 7.96204 3.16846 8.01214C3.28942 8.06225 3.41907 8.08803 3.55 8.08803C3.68093 8.08803 3.81058 8.06225 3.93154 8.01214C4.05251 7.96204 4.16242 7.88859 4.255 7.79601L4.915 7.13601L5.625 7.84601C4.53097 9.24517 3.93611 10.9699 3.935 12.746C3.935 17.166 7.515 20.746 11.935 20.746C13.785 20.746 15.485 20.116 16.835 19.056L19.225 21.446C19.425 21.646 19.675 21.736 19.935 21.736C20.195 21.736 20.445 21.636 20.645 21.446C20.7376 21.3545 20.8112 21.2455 20.8614 21.1253C20.9116 21.0052 20.9374 20.8762 20.9374 20.746C20.9374 20.6158 20.9116 20.4869 20.8614 20.3667C20.8112 20.2465 20.7376 20.1375 20.645 20.046L4.855 4.26601ZM11.935 18.756C8.625 18.756 5.935 16.066 5.935 12.756C5.935 11.466 6.355 10.266 7.045 9.28601L15.405 17.646C14.425 18.346 13.225 18.756 11.935 18.756ZM21.155 6.38601L18.325 3.55601C18.2324 3.46343 18.1225 3.38999 18.0015 3.33989C17.8806 3.28978 17.7509 3.26399 17.62 3.26399C17.4891 3.26399 17.3594 3.28978 17.2385 3.33989C17.1175 3.38999 17.0076 3.46343 16.915 3.55601C16.8224 3.64859 16.749 3.75851 16.6989 3.87947C16.6488 4.00043 16.623 4.13008 16.623 4.26101C16.623 4.39194 16.6488 4.52159 16.6989 4.64256C16.749 4.76352 16.8224 4.87343 16.915 4.96601L19.745 7.79601C19.8376 7.88859 19.9475 7.96204 20.0685 8.01214C20.1894 8.06225 20.3191 8.08803 20.45 8.08803C20.5809 8.08803 20.7106 8.06225 20.8315 8.01214C20.9525 7.96204 21.0624 7.88859 21.155 7.79601C21.2476 7.70343 21.321 7.59352 21.3711 7.47256C21.4212 7.35159 21.447 7.22194 21.447 7.09101C21.447 6.96008 21.4212 6.83043 21.3711 6.70947C21.321 6.58851 21.2476 6.47859 21.155 6.38601Z"/>
</svg>

<svg xmlns="http://www.w3.org/2000/svg" width="24" height="24" fill="currentColor" viewBox="0 0 24 24">
  <path d="M11.935 6.756c3.31 0 6 2.69 6 6 0 .54-.09 1.05-.22 1.54l1.58 1.58c.41-.96.64-2.01.64-3.12 0-4.42-3.58-8-8-8-1.11 0-2.16.23-3.12.64l1.58 1.58c.49-.13 1.01-.22 1.54-.22m-7.08-2.49v-.01l-.2-.2a.997.997 0 0 0-1.41 1.41l.26.26-.66.66a.997.997 0 0 0 1.41 1.41l.66-.66.71.71a7.96 7.96 0 0 0-1.69 4.9c0 4.42 3.58 8 8 8 1.85 0 3.55-.63 4.9-1.69l2.39 2.39c.2.2.45.29.71.29s.51-.1.71-.29a.984.984 0 0 0 0-1.4zm7.08 14.49c-3.31 0-6-2.69-6-6 0-1.29.42-2.49 1.11-3.47l8.36 8.36c-.98.7-2.18 1.11-3.47 1.11m9.22-12.37-2.83-2.83a.997.997 0 0 0-1.41 1.41l2.83 2.83a.997.997 0 0 0 1.41-1.41"/>
</svg>
